icons/task-line.svg

<svg viewBox="0 0 24 24" fill="currentColor" xmlns="http://www.w3.org/2000/svg"><path d="M19 4H5V20H19V4ZM3 2.9918C3 2.44405 3.44749 2 3.9985 2H19.9997C20.5519 2 20.9996 2.44772 20.9997 3L21 20.9925C21 21.5489 20.5551 22 20.0066 22H3.9934C3.44476 22 3 21.5447 3 21.0082V2.9918ZM11.2929 13.1213L15.5355 8.87868L16.9497 10.2929L11.2929 15.9497L7.40381 12.0607L8.81802 10.6464L11.2929 13.1213Z"/></svg>

<svg xmlns="http://www.w3.org/2000/svg" viewBox="0 0 24 24">
    <g>
        <path fill="none" d="M0 0h24v24H0z"/>
        <path d="M21 2.992v18.016a1 1 0 0 1-.993.992H3.993A.993.993 0 0 1 3 21.008V2.992A1 1 0 0 1 3.993 2h16.014c.548 0 .993.444.993.992zM19 4H5v16h14V4zm-7.707 9.121l4.243-4.242 1.414 1.414-5.657 5.657-3.89-3.89 1.415-1.414 2.475 2.475z"/>
    </g>
</svg>
